Numix/16/status/indicator-keyboard-Sl.svg

<?xml version="1.0" encoding="UTF-8" standalone="no"?>
<svg
   xmlns:dc="http://purl.org/dc/elements/1.1/"
   xmlns:cc="http://creativecommons.org/ns#"
   xmlns:rdf="http://www.w3.org/1999/02/22-rdf-syntax-ns#"
   xmlns:svg="http://www.w3.org/2000/svg"
   xmlns="http://www.w3.org/2000/svg"
   xmlns:sodipodi="http://sodipodi.sourceforge.net/DTD/sodipodi-0.dtd"
   xmlns:inkscape="http://www.inkscape.org/namespaces/inkscape"
   viewBox="0 0 16 16"
   id="svg2"
   version="1.1"
   inkscape:version="0.91 r13725"
   sodipodi:docname="indicator-keyboard-Sl.svg">
  <metadata
     id="metadata13">
    <rdf:RDF>
      <cc:Work
         rdf:about="">
        <dc:format>image/svg+xml</dc:format>
        <dc:type
           rdf:resource="http://purl.org/dc/dcmitype/StillImage" />
      </cc:Work>
    </rdf:RDF>
  </metadata>
  <defs
     id="defs11" />
  <sodipodi:namedview
     pagecolor="#ffffff"
     bordercolor="#666666"
     borderopacity="1"
     objecttolerance="10"
     gridtolerance="10"
     guidetolerance="10"
     inkscape:pageopacity="0"
     inkscape:pageshadow="2"
     inkscape:window-width="640"
     inkscape:window-height="480"
     id="namedview9"
     showgrid="false"
     inkscape:zoom="14.75"
     inkscape:cx="8"
     inkscape:cy="8"
     inkscape:window-x="65"
     inkscape:window-y="24"
     inkscape:window-maximized="0"
     inkscape:current-layer="svg2" />
  <path
     style="fill:#ececec;fill-opacity:1"
     d="M 1.5996094 0 C 0.71320937 2.9605947e-16 0 0.71320937 0 1.5996094 L 0 14.400391 C 2.9605947e-16 15.286791 0.71320937 16 1.5996094 16 L 14.400391 16 C 15.286791 16 16 15.286791 16 14.400391 L 16 1.5996094 C 16 0.71320937 15.286791 0 14.400391 0 L 1.5996094 0 z M 10.509766 4.4414062 L 10.509766 10.291016 C 10.509766 10.435016 10.520922 10.550625 10.544922 10.640625 C 10.574922 10.724625 10.617875 10.793656 10.671875 10.847656 C 10.725875 10.895656 10.794906 10.933031 10.878906 10.957031 C 10.968906 10.981031 11.073359 11.001531 11.193359 11.019531 L 11.111328 11.505859 C 10.913328 11.499859 10.739844 11.471828 10.589844 11.423828 C 10.445844 11.381828 10.322703 11.316562 10.220703 11.226562 C 10.124703 11.130563 10.050093 11.011188 9.9960938 10.867188 C 9.9480937 10.717187 9.9238281 10.530594 9.9238281 10.308594 L 9.9238281 4.5488281 L 10.509766 4.4414062 z M 6.984375 5.0527344 C 7.152375 5.0527344 7.3184687 5.0638906 7.4804688 5.0878906 C 7.6424688 5.1118906 7.7916875 5.1455 7.9296875 5.1875 C 8.0736875 5.2235 8.2024062 5.2664531 8.3164062 5.3144531 C 8.4364063 5.3624531 8.5352812 5.4127969 8.6132812 5.4667969 L 8.3984375 5.9804688 C 8.2244375 5.8604687 8.0117656 5.7634063 7.7597656 5.6914062 C 7.5137656 5.6194063 7.2450312 5.5839844 6.9570312 5.5839844 C 6.7590312 5.5839844 6.5762031 5.6044844 6.4082031 5.6464844 C 6.2462031 5.6824844 6.1063281 5.7459375 5.9863281 5.8359375 C 5.8663281 5.9199375 5.7692656 6.0281563 5.6972656 6.1601562 C 5.6312656 6.2921563 5.5996094 6.4507187 5.5996094 6.6367188 C 5.5996094 6.8287187 5.6350313 6.9910469 5.7070312 7.1230469 C 5.7790313 7.2550469 5.8779062 7.3688437 6.0039062 7.4648438 C 6.1359063 7.5608438 6.2888906 7.6466094 6.4628906 7.7246094 C 6.6368906 7.8026094 6.8252969 7.88475 7.0292969 7.96875 C 7.2752969 8.07075 7.5066563 8.1733906 7.7226562 8.2753906 C 7.9446563 8.3773906 8.1368281 8.4967656 8.2988281 8.6347656 C 8.4608281 8.7727656 8.5895469 8.9406719 8.6855469 9.1386719 C 8.7815469 9.3366719 8.8300781 9.5791875 8.8300781 9.8671875 C 8.8300781 10.431187 8.6323281 10.854719 8.2363281 11.136719 C 7.8463281 11.418719 7.3145781 11.558594 6.6425781 11.558594 C 6.4025781 11.558594 6.1843281 11.543672 5.9863281 11.513672 C 5.7883281 11.483672 5.6110781 11.44825 5.4550781 11.40625 C 5.2990781 11.35825 5.1665937 11.309719 5.0585938 11.261719 C 4.9505937 11.213719 4.8666406 11.172719 4.8066406 11.136719 L 5.0058594 10.605469 C 5.0658594 10.641469 5.1460469 10.684422 5.2480469 10.732422 C 5.3500469 10.780422 5.4694219 10.827 5.6074219 10.875 C 5.7454219 10.917 5.9021719 10.954375 6.0761719 10.984375 C 6.2501719 11.014375 6.4423437 11.029297 6.6523438 11.029297 C 7.1383437 11.029297 7.5151563 10.941578 7.7851562 10.767578 C 8.0551562 10.587578 8.1914062 10.300297 8.1914062 9.9042969 C 8.1914062 9.6762969 8.1466406 9.4859375 8.0566406 9.3359375 C 7.9726406 9.1799375 7.8588438 9.0512188 7.7148438 8.9492188 C 7.5708437 8.8412187 7.40475 8.7516875 7.21875 8.6796875 C 7.03275 8.6016875 6.8387656 8.5195469 6.6347656 8.4355469 C 6.3767656 8.3335469 6.1454062 8.2290937 5.9414062 8.1210938 C 5.7374062 8.0130937 5.5619688 7.8937188 5.4179688 7.7617188 C 5.2739688 7.6237188 5.1639375 7.4669687 5.0859375 7.2929688 C 5.0139375 7.1189688 4.9785156 6.9156406 4.9785156 6.6816406 C 4.9785156 6.1476406 5.1557656 5.7427969 5.5097656 5.4667969 C 5.8637656 5.1907969 6.354375 5.0527344 6.984375 5.0527344 z "
     id="path4" />
</svg>

<svg xmlns="http://www.w3.org/2000/svg" viewBox="0 0 16 16">
 <path d="m 1.6 0 c -0.886 0 -1.6 0.713 -1.6 1.6 l 0 12.801 c 0 0.886 0.713 1.6 1.6 1.6 l 12.801 0 c 0.886 0 1.6 -0.713 1.6 -1.6 l 0 -12.801 c 0 -0.886 -0.713 -1.6 -1.6 -1.6 l -12.801 0 z m 8.91 4.441 l 0 5.85 c 0 0.144 0.011 0.26 0.035 0.35 c 0.03 0.084 0.073 0.153 0.127 0.207 c 0.054 0.048 0.123 0.085 0.207 0.109 c 0.09 0.024 0.194 0.044 0.314 0.063 l -0.082 0.486 c -0.198 -0.006 -0.371 -0.034 -0.521 -0.082 c -0.144 -0.042 -0.267 -0.107 -0.369 -0.197 c -0.096 -0.096 -0.171 -0.215 -0.225 -0.359 c -0.048 -0.15 -0.072 -0.337 -0.072 -0.559 l 0 -5.76 l 0.586 -0.107 z m -3.525 0.611 c 0.168 0 0.334 0.011 0.496 0.035 c 0.162 0.024 0.311 0.058 0.449 0.1 c 0.144 0.036 0.273 0.079 0.387 0.127 c 0.12 0.048 0.219 0.098 0.297 0.152 l -0.215 0.514 c -0.174 -0.12 -0.387 -0.217 -0.639 -0.289 c -0.246 -0.072 -0.515 -0.107 -0.803 -0.107 c -0.198 0 -0.381 0.02 -0.549 0.063 c -0.162 0.036 -0.302 0.099 -0.422 0.189 c -0.12 0.084 -0.217 0.192 -0.289 0.324 c -0.066 0.132 -0.098 0.291 -0.098 0.477 c 0 0.192 0.035 0.354 0.107 0.486 c 0.072 0.132 0.171 0.246 0.297 0.342 c 0.132 0.096 0.285 0.182 0.459 0.26 c 0.174 0.078 0.362 0.16 0.566 0.244 c 0.246 0.102 0.477 0.205 0.693 0.307 c 0.222 0.102 0.414 0.221 0.576 0.359 c 0.162 0.138 0.291 0.306 0.387 0.504 c 0.096 0.198 0.145 0.441 0.145 0.729 c 0 0.564 -0.198 0.988 -0.594 1.27 c -0.39 0.282 -0.922 0.422 -1.594 0.422 c -0.24 0 -0.458 -0.015 -0.656 -0.045 c -0.198 -0.03 -0.375 -0.065 -0.531 -0.107 c -0.156 -0.048 -0.288 -0.097 -0.396 -0.145 c -0.108 -0.048 -0.192 -0.089 -0.252 -0.125 l 0.199 -0.531 c 0.06 0.036 0.14 0.079 0.242 0.127 c 0.102 0.048 0.221 0.095 0.359 0.143 c 0.138 0.042 0.295 0.079 0.469 0.109 c 0.174 0.03 0.366 0.045 0.576 0.045 c 0.486 0 0.863 -0.088 1.133 -0.262 c 0.27 -0.18 0.406 -0.467 0.406 -0.863 c 0 -0.228 -0.045 -0.418 -0.135 -0.568 c -0.084 -0.156 -0.198 -0.285 -0.342 -0.387 c -0.144 -0.108 -0.31 -0.198 -0.496 -0.27 c -0.186 -0.078 -0.38 -0.16 -0.584 -0.244 c -0.258 -0.102 -0.489 -0.206 -0.693 -0.314 c -0.204 -0.108 -0.379 -0.227 -0.523 -0.359 c -0.144 -0.138 -0.254 -0.295 -0.332 -0.469 c -0.072 -0.174 -0.107 -0.377 -0.107 -0.611 c 0 -0.534 0.177 -0.939 0.531 -1.215 c 0.354 -0.276 0.845 -0.414 1.475 -0.414 z" style="fill:#ececec;fill-opacity:1"/>
</svg>
